!!!CDT:
!!!PTL: Primo libro de madrigali a quattro voci
!!!PPP: Venice
!!!PPR: Giacomo Vincenzi
!!!PDT: 1603
!!!PUB-format:
!!!RISM: A 678
!!!rime: 560
!!!AGN: Madrigal
!!!SCT: Trm0560n
!!!SCA: Trm0560n
!!!original-voices: 4
!!!extant-voices: 4
!!!complete: Y
!!!final: F
!!!COM: Alberti, Innocenzo
!!!OTL: Tarquinia, se rimiri
**kern	**text	**kern	**text	**kern	**text	**kern	**text
*part4	*part4	*part3	*part3	*part2	*part2	*part1	*part1
*staff4	*staff4	*staff3	*staff3	*staff2	*staff2	*staff1	*staff1
*I"Basso	*	*I"Tenore	*	*I"Alto	*	*I"Canto	*
*I'B	*	*I'T	*	*I'A	*	*I'C	*
*oclefF3	*	*oclefC3	*	*oclefC2	*	*oclefG2	*
*clefF4	*	*clefGv2	*	*clefG2	*	*clefG2	*
*k[b-]	*	*k[b-]	*	*k[b-]	*	*k[b-]	*
*F:	*	*F:	*	*F:	*	*F:	*
*omet(C|)	*	*omet(C|)	*	*omet(C|)	*	*omet(C|)	*
*M2/1	*	*M2/1	*	*M2/1	*	*M2/1	*
=1	=1	=1	=1	=1	=1	=1	=1
1r	.	1r	.	1f	Men-	2r	.
.	.	.	.	.	.	1a	Men-
1F	Men-	1c	Men-	2f	-tre,	.	.
.	.	.	.	[2a	mia	[2cc	-tre,
=2	=2	=2	=2	=2	=2	=2	=2
2F	-tre,	2c	-tre,	2a]	.	2cc]	.
2E	mia	2e	mia	1g	stel-	2cc	mia
2G	stel-	2d	stel-	.	.	2bnX	stel-
2A	-la,	2c	-la,	2e	-la,	2cc	-la,
=3	=3	=3	=3	=3	=3	=3	=3
1F	mi-	1f	mi-	1a	mi-	1cc	mi-
2F	-ri	2c	-ri	2a	-ri	2cc	-ri,
4r	.	4r	.	4r	.	4r	.
4F	I	4c	I	4f	I	4a	I
=4	=4	=4	=4	=4	=4	=4	=4
2F	bei	2c	bei	2f	bei	2a	bei
2A	stel-	2c	stel-	2e	stel-	2cc	stel-
2G	-la-	2BnX	-la-	2g	-la-	4dd	-la-
.	.	.	.	.	.	4dd	-ti
2F	-ti	2c	-ti	2a	-ti	[2ff	gi-
=5	=5	=5	=5	=5	=5	=5	=5
1B-y	gi-	2.d	gi-	2.f	gi-	4ff]	.
.	.	.	.	.	.	4ee	.
.	.	.	.	.	.	2dd	.
.	.	4e	.	4g	.	.	.
1F	-ri,	4f	.	4a	.	1cc	-ri,
.	.	4g	.	4b-y	.	.	.
.	.	4a	.	4cc	.	.	.
.	.	4f	.	4a	.	.	.
=6	=6	=6	=6	=6	=6	=6	=6
2r	.	4g	.	4b-y	.	1r	.
.	.	4f	.	4a	.	.	.
2F	Il	1f	.	4a	.	.	.
.	.	.	.	8gL	.	.	.
.	.	.	.	8fJ	.	.	.
1c	ciel,	.	.	1g	.	2r	.
.	.	2e	.	.	.	2cc	Il
=7	=7	=7	=7	=7	=7	=7	=7
2r	.	2f	-ri,	2a	-ri,	1.cc	ciel
2F	Il	4r	.	4r	.	.	.
.	.	4f	Il	4a	Il	.	.
2c	ciel	2e	ciel	2g	ciel	.	.
2A	es-	2e	es-	2a	es-	2cc	es-
=8	=8	=8	=8	=8	=8	=8	=8
4G	-ser	4g	-ser	4bnX	-ser	4dd	-ser
4c	vor-	4g	vor-	4cc	vor-	4ee	vor-
2F	-re-	2a	-re-	2cc	-re-	2ff	-re-
2G	-i;	2g	-i;	2bnX	-i;	2dd	-i;
4r	.	4r	.	4r	.	4r	.
4F	Per-	4c	Per-	4cc	Per-	4a	Per-
=9	=9	=9	=9	=9	=9	=9	=9
2F	-ché	2.f	-ché	2cc	-ché	2a	-ché
2F	ne'	.	.	2a	ne'	2cc	ne'
.	.	4f	ne'	.	.	.	.
2G	lu-	4d	lu-	2g	lu-	2b-y	lu-
.	.	4e	-mi	.	.	.	.
2A	-mi	[2f	mie-	2cc	-mi	2a	-mi
=10	=10	=10	=10	=10	=10	=10	=10
1B-y	mie-	2f]	.	1f	mie-	1dd	mie-
.	.	2d	-i	.	.	.	.
2G	-i	2d	Fis-	2g	-i	2bnX	-i
2c	Fis-	4.e	-so	2g	Fis-	2cc	Fis-
.	.	8e	tu	.	.	.	.
=11	=11	=11	=11	=11	=11	=11	=11
4.A	-so	4e	ri-	4.a	-so	4.cc	-so
.	.	4e	-vol-	.	.	.	.
8A	tu	.	.	8a	tu	8cc	tu
4F	ri-	2f	-ges-	4a	ri-	4cc	ri-
4F	-vol-	.	.	4a	-vol-	4cc	-vol-
2B-y	-ges-	2f	-si	2b-y	-ges-	2dd	-ges-
2G	-si	4g	Le	2b-y	-si	4dd	-si
.	.	4g	tue	.	.	[4dd	Le
=12	=12	=12	=12	=12	=12	=12	=12
4d	Le	2f	dol-	4.a	Le	4dd]	.
4d	tue	.	.	.	.	4dd	tue
.	.	.	.	8bnX	tue	.	.
2c	dol-	2.g	-ci	2cc	dol-	4.ee-X	dol-
.	.	.	.	.	.	8ee-i	-ci
4BnX	-ci	.	.	4g	-ci	4dd	fa-
4c	fa-	4e-X	fa-	4g	fa-	2cc	-vil-
2G	-vil-	2d	-vil-	2g	-vil-	.	.
.	.	.	.	.	.	4bnXi	.
=13	=13	=13	=13	=13	=13	=13	=13
1C	-le,	1c	-le,	1g	-le,	1cc	-le,
2r	.	2r	.	1r	.	2r	.
2F	Io	2c	Io	.	.	2a	Io
=14	=14	=14	=14	=14	=14	=14	=14
2F	va-	2A	va-	2f	Io	2cc	va-
4G	-gheg-	4B-y	-gheg-	4d	va-	4b-y	-gheg-
2A	-giar	2c	-giar	4f	-gheg-	2a	-giar
.	.	.	.	4e	-giar	.	.
4B-y	po-	4d	po-	4d	po-	4f	po-
2G	-tes-	2B-y	-tes-	2e	-tes-	2g	-tes-
=15	=15	=15	=15	=15	=15	=15	=15
2F	-si,	2c	-si,	2f	-si,	2a	-si,
4r	.	4r	.	2a	<Io	2cc	<Io
4F	<Io	4f	<Io	.	.	.	.
2c	va-	2e	va-	4.g	va-	2cc	va-
.	.	.	.	8a	-gheg-	.	.
4B-y	-gheg-	4f	-gheg-	4b-y	-giar	4dd	-gheg-
[4A	-giar	[4c	-giar	4cc	po-	[4ee	-giar
=16	=16	=16	=16	=16	=16	=16	=16
4A]	.	4c]	.	2a	-tes-	4ee]	.
4F	po-	4c	po-	.	.	4ff	po-
2G	-tes-	2BnX	-tes-	2g	-si>	2dd	-tes-
1A	-si	2c	-si>	2e	Mil-	1cc	-si>
.	.	2A	Mil-	4e	-le	.	.
.	.	.	.	4e	bel-	.	.
=17	=17	=17	=17	=17	=17	=17	=17
2D	Mil-	4A	-le	2f#X	-lez-	2a	Mil-
.	.	4A	bel-	.	.	.	.
4D	-le	2d	-lez-	2f#i	-ze	4a	-le
4D	bel-	.	.	.	.	4a	bel-
2G	-lez-	2d	-ze	4g	tue,	2b-y	-lez-
.	.	.	.	4d	<Mil-	.	.
2C	-ze	2c	tue,	4e	-le	2g	-ze
.	.	.	.	4e	bel-	.	.
=18	=18	=18	=18	=18	=18	=18	=18
1F	tue,	4r	.	2fnXi	-lez-	2a	tue,
.	.	4c	<Mil-	.	.	.	.
.	.	4A	-le	2c	-ze	4r	.
.	.	4A	bel-	.	.	4a	<Mil-
1r	.	2B-y	-lez-	4d	tue,>	4f	-le
.	.	.	.	4d	Mil-	4f	bel-
.	.	2G	-ze	4d	-le	4.b-y	-lez-
.	.	.	.	4e	bel-	.	.
.	.	.	.	.	.	8b-y	-ze
=19	=19	=19	=19	=19	=19	=19	=19
1r	.	2d	tue>	2f	-lez-	4a	tue>
.	.	.	.	.	.	4dd	con
.	.	2A	con	2e	-ze	2cc	oc-
2D	<Mil-	2d	oc-	2f	tue>	4b-y	-chi
.	.	.	.	.	.	2a	mil-
4D	-le	2B-y	-chi	2d	con	.	.
4E	bel-	.	.	.	.	4g	.
=20	=20	=20	=20	=20	=20	=20	=20
2F	-lez-	2.A	mil-	4c	oc-	1a	-le,
.	.	.	.	4c	-chi	.	.
2D	-ze	.	.	2f	mil-	.	.
.	.	4B-y	.	.	.	.	.
2A	tue>	4c	.	2e	-le,	2r	.
.	.	4d	.	.	.	.	.
2A	con	4e	.	4r	.	2cc	con
.	.	4f	.	4a	<con	.	.
=21	=21	=21	=21	=21	=21	=21	=21
2B-y	oc-	4d	.	2f	oc-	2dd	oc-
.	.	4e	.	.	.	.	.
2F	-chi	1f	.	2a	-chi	2cc	-chi
1c	mil-	.	.	1g	mil-	1cc	mil-
.	.	2e	.	.	.	.	.
=22	=22	=22	=22	=22	=22	=22	=22
1F	-le,	1f	-le,	1a	-le,>	1cc	-le,
2r	.	2r	.	1r	.	2r	.
2F	Io	2c	Io	.	.	2a	Io
=23	=23	=23	=23	=23	=23	=23	=23
2F	va-	2A	va-	2f	Io	2cc	va-
4G	-gheg-	4B-y	-gheg-	4d	va-	4b-y	-gheg-
2A	-giar	2c	-giar	4f	-gheg-	2a	-giar
.	.	.	.	4e	-giar	.	.
4B-y	po-	4d	po-	4d	po-	4f	po-
2G	-tes-	2B-y	-tes-	2e	-tes-	2g	-tes-
=24	=24	=24	=24	=24	=24	=24	=24
2F	-si,	2c	-si,	2f	-si,	2a	-si,
4r	.	4r	.	2a	<Io	2cc	<Io
4F	<Io	4f	<Io	.	.	.	.
2c	va-	2e	va-	4.g	va-	2cc	va-
.	.	.	.	8a	-gheg-	.	.
4B-y	-gheg-	4f	-gheg-	4b-y	-giar	4dd	-gheg-
[4A	-giar	[4c	-giar	4cc	po-	[4ee	-giar
=25	=25	=25	=25	=25	=25	=25	=25
4A]	.	4c]	.	2a	-tes-	4ee]	.
4F	po-	4c	po-	.	.	4ff	po-
2G	-tes-	2BnX	-tes-	2g	-si>	2dd	-tes-
1A	-si>	2c	-si>	2e	Mil-	1cc	-si>
.	.	2A	Mil-	4e	-le	.	.
.	.	.	.	4e	bel-	.	.
=26	=26	=26	=26	=26	=26	=26	=26
2D	Mil-	4A	-le	2f#X	-lez-	2a	Mil-
.	.	4A	bel-	.	.	.	.
4D	-le	2d	-lez-	2f#i	-ze	4a	-le
4D	bel-	.	.	.	.	4a	bel-
2G	-lez-	2d	-ze	4g	tue,	2b-y	-lez-
.	.	.	.	4d	Mil-	.	.
2C	-ze	2c	tue,	4e	-le	2g	-ze
.	.	.	.	4e	bel-	.	.
=27	=27	=27	=27	=27	=27	=27	=27
1F	tue,	4r	.	2fnXi	-lez-	2a	tue,
.	.	4c	Mil-	.	.	.	.
.	.	4A	-le	2c	-ze	4r	.
.	.	4A	bel-	.	.	4a	Mil-
1r	.	2B-y	-lez-	4d	tue,	4f	-le
.	.	.	.	4d	<Mil-	4f	bel-
.	.	2G	-ze	4d	-le	4.b-y	-lez-
.	.	.	.	4e	bel-	.	.
.	.	.	.	.	.	8b-y	-ze
=28	=28	=28	=28	=28	=28	=28	=28
1r	.	2d	tue	2f	-lez-	4a	tue
.	.	.	.	.	.	4dd	con
.	.	2A	con	2e	-ze	2cc	oc-
2D	Mil-	2d	oc-	2f	tue>	4b-y	-chi
.	.	.	.	.	.	2a	mil-
4D	-le	2B-y	-chi	2d	con	.	.
4E	bel-	.	.	.	.	4g	.
=29	=29	=29	=29	=29	=29	=29	=29
2F	-lez-	2.A	mil-	4c	oc-	1a	-le,
.	.	.	.	4c	-chi	.	.
2D	-ze	.	.	2f	mil-	.	.
.	.	4B-y	.	.	.	.	.
2A	tue	4c	.	2e	-le,	2r	.
.	.	4d	.	.	.	.	.
2A	con	4e	.	4r	.	2cc	con
.	.	4f	.	4a	<con	.	.
=30	=30	=30	=30	=30	=30	=30	=30
2B-y	oc-	4d	.	2f	oc-	2dd	oc-
.	.	4e	.	.	.	.	.
2F	-chi	1f	.	2a	-chi	2cc	-chi
1c	mil-	.	.	1g	mil-	1cc	mil-
.	.	2e	.	.	.	.	.
=31	=31	=31	=31	=31	=31	=31	=31
0Fl	-le.	0fl	-le.	0al	-le.>	0ccl	-le.
==	==	==	==	==	==	==	==
*-	*-	*-	*-	*-	*-	*-	*-
!!!system-decoration: [*]
!!!RDF**kern: i = editorial accidental
!!!RDF**kern: l = terminal long
!!!ENC: Emiliano Ricciardi
!!!END: 2019/08/08
!!!EED: Ricciardi, Emiliano
!!!EEV: 2019/08/08
!!!YEC: Copyright 2018 Emiliano Ricciardi, All Rights Reserved
!!!ONB: Translated from MusicXML on 2019/08/08 and edited by Craig Stuart Sapp
!!@@BEGIN:	VERSEDATA
!!@SOLERTI:	560
!!@CATALOGNUM:	Trm0560
!!@LAST_MODIFIED: 2020/07/12
!!@TITLE:		Tarquinia, se rimiri
!!@GENRE:		madrigale
!!@MANUSRC:	A<sub>3</sub>, C, E<sub>1</sub>, E<sub>7</sub>, F<sub>2</sub>, V<sub>8</sub>, V<sub>9</sub>, V<sub>13/E1</sub>
!!@PRINTSRC:	8, 9, 11, 12, 13, 15, 20, 24, 33, 67, 141, 145, 166, 169
!!@@BEGIN:	VERSES
!!@ABOUTIT:	A la signora Tarquinia Molza la quale studiando la sfera andava la sera a contemplar le stelle.
!!@ABOUTEN:	To lady Tarquinia Molza who, studying the globe, went to contemplate the stars at night.
!!@EDITOR:	Solerti, Angelo
!!@EDITION_TITLE: Le Rime di Torquato Tasso
!!@EDITION_LOC:	Bologna
!!@EDITION_PUB:	Romagnoli-Dall’Acqua
!!@EDITION_DATE:  1898-1902
!!@EDITION_VOL:	3
!!@EDITION_PAGE:  79
!!@TRANSLATOR:	Emiliano Ricciardi and Amyrose McCue Gill
!!@VERSE:
!!	Tarquinia, se rimiri
!!	I bei celesti giri,
!!	Il cielo esser vorrei;
!!	Perché ne gli occhi miei
!!	Fisso tu rivolgessi
!!	Le tue dolci faville,
!!	Io vagheggiar potessi
!!	Mille bellezze tue con luci mille.
!!@TVERSE:
!!	Tarquinia, if I look upon
!!	The beautiful blue spheres,
!!	The sky I wish to be;
!!	So that to my eyes
!!	Raptly you may turn
!!	Your sweet sparks,
!!	And I may long for
!!	Your thousand beauties with a thousand 	lights.
!!@@END:		VERSES
!!@OTHER_CRIT_ED:   Torquato Tasso, <i>Rime d’amore (secondo il codice
!!		Chigiano L VIII 302)</i>, eds. Franco Gavazzeni and
!!		Vercingetorige Martignone, vol. 4 of <i>Edizione
!!		Nazionale delle opere di Torquato Tasso</i>
!!		(Alessandria: Edizioni Dell’Orso, 2004), 171.
!!@ATTRIBUTION_ABOUT:	Secure
!!		<br>
!!		Among other authoritative sources (see Literary
!!		Sources), this poem appears in the autograph Chigiano
!!		L.VIII.302 (Biblioteca Vaticana, Rome), compiled
!!		around 1584&ndash;85.
!!@DATING:	In or before 1571
!!		<br>
!!		The earliest datable appearance of this poem is in a musical setting by Ferrarese composer Luzzasco Luzzaschi published in 1571 (see Musical Settings). In this setting, the text is subtantially different than in later musical and literary sources (see Literary Variants).
!!@DEDICATEE:	Molza, Tarquinia Molza
!!@DEDICATEE_INFO:	(1542-1617)
!!@COMMENTARY:
!!@@END:		VERSEDATA
!!@@BEGIN:	SETTING
!!@CATALOGNUM:	Trm0560n
!!@RIMETITLE:	Tarquinia, se rimiri
!!@SETTINGTITLE:	Mentre, mia stella, miri
!!@SOLERTI:	560
!!@COMPOSER:	Alberti, Innocenzo
!!@PRINCEPSTITLE:	Primo libro de madrigali a quattro voci
!!@PRINCEPSLOC:	Venetia
!!@NORMLOC:	Venice
!!@NORMPUB:	Giacomo Vincenzi
!!@NORMPUBSHORT:	G. Vincenzi
!!@PRINCEPSPUB:	Vincenti
!!@PRINCEPSYEAR:	1603
!!@PRINCEPSRISM:	A 678
!!@REPRINTS:	
!!@OVOICES:	4
!!@EXTANTVOICES:	4
!!@PARTBOOKS:	
!!@EXTPARTBOOKS:	
!!@OCLEFS:	G2,C2,C3,F3
!!@OMENSURATION:	Cut-C
!!@OKEYSIG:	b-
!!@FINAL:	F
!!@TIMPEDITOR:	Ricciardi, Emiliano
!!@NOTE:		
!!@@END:		SETTING
